X:1293
L:1/8
M:2/2
K:Eb
 GF |"Eb" EB,G,B, EB,FB, | GB,AB, (3GAG FE |"Bb" DFB=A cB_AF |"Eb" EGB=A cB_AF | EB,G,B, EB,FB, | 
 GB,AB, (3GAG FE |"Bb" DFB=A cB_AF |"Eb" [EG,]2 [EG,]2 [EG,]2 :: B2 |"Eb" gB=AB gBbg | egBe GBcB | 
"Bb7" (3BcB AB FBcB |"Eb" (3BcB GE B,EGB | gB=AB gBbg | egBe GBcB |"Bb7" (3BcB AB FBdf |"Eb" e6 :|

